img/modal-close.svg

<svg width="55" height="55" viewBox="0 0 55 55" fill="none" xmlns="http://www.w3.org/2000/svg">
<circle opacity="0.5" cx="27.5" cy="27.5" r="27.5" fill="#F7E296"/>
<g opacity="0.7">
<path d="M35.9499 37.725L27.9999 29.7625L20.0499 37.725L18.2749 35.95L26.2374 28L18.2749 20.05L20.0499 18.275L27.9999 26.2375L35.9499 18.2875L37.7124 20.05L29.7624 28L37.7124 35.95L35.9499 37.725Z" fill="white"/>
</g>
</svg>

<svg width="55" height="55" fill="none" xmlns="http://www.w3.org/2000/svg"><circle opacity=".5" cx="27.5" cy="27.5" r="27.5" fill="#F7E296"/><path d="M35.95 37.725L28 29.762l-7.95 7.963-1.775-1.775L26.237 28l-7.962-7.95 1.775-1.775L28 26.238l7.95-7.95 1.762 1.762-7.95 7.95 7.95 7.95-1.762 1.775z" fill="#fff" opacity=".7"/></svg>
